X:1
T:Wetherby, CM
T:Samuel Sebastian Wesley, 1872
T:Wetherby, CM
T:Public Domain
C:Samuel Sebastian Wesley, 1872
Z:Public Domain
%%score ( 1 2 ) ( 3 4 )
L:1/8
M:3/4
K:Db
V:1 treble 
V:2 treble 
V:3 bass 
V:4 bass 
V:1
 [DF]2 | [FA]4 (FE) | D4 [DA]2 | [DB]4 [DB]2 | [DA]4 [EA]2 | [Dd]4 [Ec]2 | (cB) [EA]2 [E=G]2 | %7
 [CA]4 [EA]2 | [Ec]4 [Ce]2 | [Dd]4 [FA]2 | [FA]2 [EG]2 [=DF]2 | [EG]4 [GB]2 | [FA]4 D2 | %13
 E2 F2 [CE]2 | D4 |] %15
V:2
 x2 | x4 C2 | x6 | x6 | x6 | x6 | F2 x4 | x6 | x6 | x6 | x6 | x6 | x6 | D4 x2 | x4 |] %15
V:3
 [D,A,]2 | [D,A,]4 (A,G,) | [B,,F,]4 [F,,D,]2 | [G,,D,]2 [B,,G,]2 (D,E,) | [D,F,]4 [C,A,]2 | %5
 F,2 =G,2 [C,A,]2 | [D,D]2 [E,C]2 [E,B,]2 | [A,,A,]4 [A,,C]2 | [A,C]4 [G,A,]2 | [F,A,]4 [F,C]2 | %10
 [B,,B,]4 [B,,B,]2 | [E,B,]4 [C,E,]2 | [D,F,]4 [F,A,]2 | [G,B,]2 A,2 (A,G,) | [D,F,]4 |] %15
V:4
 x2 | x4 A,,2 | x6 | x4 G,,2 | x6 | B,,4 x2 | x6 | x6 | x6 | x6 | x6 | x6 | x6 | x2 A,2 A,,2 | %14
 x4 |] %15

